svg/u1f61b.svg

<svg viewBox="0 0 128 128" xmlns="http://www.w3.org/2000/svg" xmlns:xlink="http://www.w3.org/1999/xlink">
  <g>
    <g id="gold">
      <radialGradient id="face_1_" cx="63.6" cy="808.9" gradientTransform="matrix(1 0 0 1 0 -746)" gradientUnits="userSpaceOnUse" r="56.9597">
        <stop offset="0.5" stop-color="#FDE030"/>
        <stop offset="0.92" stop-color="#F7C02B"/>
        <stop offset="1" stop-color="#F4A223"/>
      </radialGradient>
      <path id="face" d="M63.6,118.8c-27.9,0-58-17.5-58-55.9S35.7,7,63.6,7c15.5,0,29.8,5.1,40.4,14.4 c11.5,10.2,17.6,24.6,17.6,41.5s-6.1,31.2-17.6,41.4C93.4,113.6,79,118.8,63.6,118.8z" fill="url(#face_1_)"/>
      <path d="M111.49,29.67c5.33,8.6,8.11,18.84,8.11,30.23c0,16.9-6.1,31.2-17.6,41.4 c-10.6,9.3-25,14.5-40.4,14.5c-18.06,0-37-7.35-48.18-22.94c10.76,17.66,31,25.94,50.18,25.94c15.4,0,29.8-5.2,40.4-14.5 c11.5-10.2,17.6-24.5,17.6-41.4C121.6,50.16,118.13,38.84,111.49,29.67z" fill="#EB8F00"/>
    </g>
    <g id="facial_expressions">
      <g id="mouth">
        <g>
          <defs>
            <path id="SVGID_1_" d="M62.82,80.43c-11.5,0.06-22.98-0.9-34.31-2.89c-1.9-0.36-3.74,0.89-4.1,2.79c-0.08,0.44-0.08,0.9,0,1.34 c3.26,16,19,29.13,38.4,29.13c21.21,0,35.48-13.57,38.45-29.19c0.34-1.91-0.92-3.73-2.83-4.08c-0.42-0.08-0.86-0.07-1.28,0.01 C85.82,79.53,74.33,80.49,62.82,80.43z"/>
          </defs>
          <clipPath id="SVGID_2_">
            <use overflow="visible" xlink:href="#SVGID_1_"/>
          </clipPath>
          <g clip-path="url(#SVGID_2_)">
            <path d="M62.82,80.43c-11.5,0.06-22.98-0.9-34.31-2.89c-1.9-0.36-3.74,0.89-4.1,2.79 c-0.08,0.44-0.08,0.9,0,1.34c3.26,16,19,29.13,38.4,29.13c21.21,0,35.48-13.57,38.45-29.19c0.34-1.91-0.92-3.73-2.83-4.08 c-0.42-0.08-0.86-0.07-1.28,0.01C85.82,79.53,74.33,80.49,62.82,80.43z" fill="#422B0D"/>
          </g>
        </g>
        <path d="M65.54,85h-2.73h-1.26c-5.73,0-11.38-0.27-16.81-0.72v24.57c0.01,9.47,7.7,17.15,17.17,17.15h3.27 c9.48,0,17.17-7.69,17.17-17.17V84.15C76.93,84.64,71.29,84.93,65.54,85z" fill="#FF4081"/>
        <path d="M63.55,106.25c1.1,0,2-0.9,2-2c0,0,0,0,0,0V85h-2.73h-1.27 v19.24c-0.01,1.1,0.89,2,1.99,2.01C63.54,106.25,63.55,106.25,63.55,106.25z" enable-background="new " fill="#AB3F2E" opacity="0.3"/>
      </g>
      <path d="M44,46.94L44,46.94c-4.19,0-8,3.54-8,9.42s3.81,9.41,8,9.41l0,0c4.2,0,8-3.54,8-9.41 S48.24,46.94,44,46.94z" fill="#422B0D"/>
      <g id="peepers">
        <path d="M43.65,50.87L43.65,50.87c-1.42-0.68-3.13-0.08-3.82,1.34c-0.53,1.11-0.29,2.44,0.6,3.3l0,0 c1.42,0.68,3.13,0.08,3.82-1.34C44.78,53.06,44.54,51.73,43.65,50.87z" fill="#896024"/>
      </g>
      <path d="M82.4,46.94L82.4,46.94c-4.19,0-8,3.54-8,9.42s3.81,9.41,8,9.41l0,0c4.19,0,8-3.54,8-9.41 S86.59,46.94,82.4,46.94z" fill="#422B0D"/>
      <g id="peepers-2">
        <path d="M82,50.87L82,50.87c-1.42-0.68-3.13-0.08-3.82,1.34c-0.53,1.11-0.29,2.44,0.6,3.3l0,0 c1.42,0.68,3.13,0.08,3.82-1.34C83.13,53.06,82.89,51.73,82,50.87z" fill="#896024"/>
      </g>
      <path d="M65.54,85h-4c-5.73,0-11.38-0.27-16.81-0.72v3.55 c4.74,1.07,18.8,3.48,37.61-0.22v-3.46C76.93,84.64,71.29,84.93,65.54,85z" enable-background="new " fill="#AB3F2E" opacity="0.3"/>
    </g>
  </g>
</svg>

<svg viewBox="0 0 128 128" xmlns="http://www.w3.org/2000/svg">
  <defs>
    <radialGradient id="face_1_" cx="63.6" cy="62.9" gradientUnits="userSpaceOnUse" r="56.9597">
      <stop offset="0.5" stop-color="#FDE030"/>
      <stop offset="0.92" stop-color="#F7C02B"/>
      <stop offset="1" stop-color="#F4A223"/>
    </radialGradient>
  </defs>
  <path id="face" d="M63.6,118.8 C35.7,118.8 5.6,101.3 5.6,62.9 C5.6,24.5 35.7,7 63.6,7 C79.1,7 93.4,12.1 104,21.4 C115.5,31.6 121.6,46 121.6,62.9 C121.6,79.8 115.5,94.1 104,104.3 C93.4,113.6 79,118.8 63.6,118.8 Z" fill="url(#face_1_)"/>
  <path d="M111.49,29.67 C116.82,38.27 119.6,48.51 119.6,59.9 C119.6,76.8 113.5,91.1 102,101.3 C91.4,110.6 77,115.8 61.6,115.8 C43.54,115.8 24.6,108.45 13.42,92.86 C24.18,110.52 44.42,118.8 63.6,118.8 C79,118.8 93.4,113.6 104,104.3 C115.5,94.1 121.6,79.8 121.6,62.9 C121.6,50.16 118.13,38.84 111.49,29.67 Z" fill="#EB8F00"/>
  <path d="M62.82,80.43 C74.33,80.49 85.82,79.53 97.15,77.54 C97.57,77.46 98.01,77.45 98.43,77.53 C100.34,77.88 101.6,79.7 101.26,81.61 C98.29,97.23 84.02,110.8 62.81,110.8 C43.41,110.8 27.67,97.67 24.41,81.67 C24.33,81.23 24.33,80.77 24.41,80.33 C24.77,78.43 26.61,77.18 28.51,77.54 C39.84,79.53 51.32,80.49 62.82,80.43 Z" fill="#422B0D"/>
  <path d="M65.54,85 L62.81,85 L61.55,85 C55.82,85 50.17,84.73 44.74,84.28 L44.74,108.85 C44.75,118.32 52.44,126 61.91,126 L65.18,126 C74.66,126 82.35,118.31 82.35,108.83 L82.35,84.15 C76.93,84.64 71.29,84.93 65.54,85 Z" fill="#FF4081"/>
  <path d="M63.55,106.25 C64.65,106.25 65.55,105.35 65.55,104.25 C65.55,104.25 65.55,104.25 65.55,104.25 L65.55,85 L62.82,85 L61.55,85 L61.55,104.24 C61.54,105.34 62.44,106.24 63.54,106.25 C63.54,106.25 63.55,106.25 63.55,106.25 Z" fill="#AB3F2E" opacity="0.3"/>
  <path d="M44,46.94 L44,46.94 C39.81,46.94 36,50.48 36,56.36 C36,62.24 39.81,65.77 44,65.77 L44,65.77 C48.2,65.77 52,62.23 52,56.36 C52,50.49 48.24,46.94 44,46.94 Z" fill="#422B0D"/>
  <path d="M43.65,50.87 L43.65,50.87 C42.23,50.19 40.52,50.79 39.83,52.21 C39.3,53.32 39.54,54.65 40.43,55.51 L40.43,55.51 C41.85,56.19 43.56,55.59 44.25,54.17 C44.78,53.06 44.54,51.73 43.65,50.87 Z" fill="#896024"/>
  <path d="M82.4,46.94 L82.4,46.94 C78.21,46.94 74.4,50.48 74.4,56.36 C74.4,62.24 78.21,65.77 82.4,65.77 L82.4,65.77 C86.59,65.77 90.4,62.23 90.4,56.36 C90.4,50.49 86.59,46.94 82.4,46.94 Z" fill="#422B0D"/>
  <path d="M82,50.87 L82,50.87 C80.58,50.19 78.87,50.79 78.18,52.21 C77.65,53.32 77.89,54.65 78.78,55.51 L78.78,55.51 C80.2,56.19 81.91,55.59 82.6,54.17 C83.13,53.06 82.89,51.73 82,50.87 Z" fill="#896024"/>
  <path d="M65.54,85 L61.54,85 C55.81,85 50.16,84.73 44.73,84.28 L44.73,87.83 C49.47,88.9 63.53,91.31 82.34,87.61 L82.34,84.15 C76.93,84.64 71.29,84.93 65.54,85 Z" fill="#AB3F2E" opacity="0.3"/>
</svg>
